X:1
T:Title
%%score { ( 1 3 ) | 2 }
L:1/8
M:3/4
K:Db
V:1 treble nm="Grand Piano"
V:3 treble 
V:2 bass 
V:1
 z2 z2[Q:1/4=116] DD | G2 G2 G2 | F4 FF | B2 B2 B2 | A4 AA | [Fd]2 [Fc]4 | [Fd]2 B4 | A2 A2 A2 | %8
 [FA]4 DD | G2 G2 G2 | F4 FF | B2 B2 B2 | A4 AA | [FAf]2 [Ae]4 | [Ad]2 B2- [GB]2 | A2 A2 A2 | %16
[M:2/4] [FA]4 |[M:1/4] [FA][FA] |[M:3/4] [Ec]2 [DB]2 [CA]2 | [Ec]2 [DB]2 [CA]2 | %20
 [FA]2 [Gd]2 [E=GB]2 | [FA]4 [FA][FA] | B2 =A2 B2 | [Bd]2 [Ac]2 [GB]2 | [GB]2 [FA]2 [DF]2 | %25
 [CE]4 [CE][CE] | F2 E2 D2 | G2 F2 F2 | B2 B2 B2 | c4 AA | [FAf]2 [Fd]4 | [Bd]2 B4 | %32
[M:7/8] A2 A2 e3[Q:1/4=114][Q:1/4=112][Q:1/4=111][Q:1/4=109][Q:1/4=107][Q:1/4=105][Q:1/4=103][Q:1/4=102][Q:1/4=100][Q:1/4=98][Q:1/4=96][Q:1/4=94][Q:1/4=92][Q:1/4=91][Q:1/4=89] | %33
[M:2/4] [FAd]4 |] %34
V:2
 z2 z2 [D,F,A,][D,F,A,] | [D,B,D]2 [D,B,D]2 [D,=A,D]2 | [D,A,D]4 [D,D][D,D] | %3
 [G,DG]2 [G,DG]2 [=G,D_F]2 | [A,CE]4 [A,CEG][A,CEG] | [D,A,]2 [D,A,]4 | [D,D]2 [G,DG]4 | %7
 [A,CE]2[K:treble] [A,DF]2 [A,EG]2 | [D,D]4 [D,F,A,][D,F,A,] | [D,B,D]2 [D,B,D]2 [D,=A,D]2 | %10
 [D,A,D]4 [D,D][D,D] | [G,DG]2 [G,DG]2 [=G,D_F]2 | [A,CE]4 [A,CEG][A,CEG] | [D,D]2 [E,C]4 | %14
 [F,DF]2 [G,D]4 | [A,CE]2[K:treble] [A,DF]2 [A,EG]2 |[M:2/4][K:bass] [D,D]4 |[M:1/4] [D,A,][D,A,] | %18
[M:3/4] [A,,A,]2 [A,,A,]2 [A,,A,]2 | [A,,A,]2 [A,,A,]2 [A,,A,]2 | [D,A,]2 [D,B,]2 [D,D]2 | %21
 [D,D]4 [D,D][D,D] | [G,DG]2 [G,CG]2 [G,DG]2 | [G,D]2 [G,E]2 [G,D]2 | [D,D]2 [D,D]2 [D,A,]2 | %25
 [A,,A,]4 [A,,A,][A,,A,] | [D,A,D]2 [D,G,D]2 [D,F,A,]2 | [D,B,D]2 [D,A,D]2 [D,D]2 | %28
 [G,DG]2 [G,CG]2 [=G,D_F]2 | [A,CE]4 [A,CEG][A,CEG] | [D,D]2 [D,D]4 | [G,D]2[K:treble] [G,DG]4 | %32
[M:7/8] [A,CE]2 [A,DF]2 [A,DGA]3 |[M:2/4][K:bass] [D,A,]4 |] %34
V:3
 x6 | x6 | x6 | x6 | x6 | x6 | x6 | x6 | x6 | x6 | x6 | x6 | x6 | x6 | z2 A2 z2 | x6 |[M:2/4] x4 | %17
[M:1/4] x2 |[M:3/4] x6 | x6 | x6 | x6 | x6 | x6 | x6 | x6 | x6 | x6 | x6 | x6 | x6 | x6 | %32
[M:7/8] x7 |[M:2/4] x4 |] %34

